X:1
T:Let others boast their ancient line
T:Let others boast their ancient line - Adoption (Thomas Clark)
C:Thomas Clark
Z:Tune 672 from p504 of
Z:The Congregational Harmonist,
Z:Book 4, No. 28, London: [1837]
%%score [ 1 2 3 4 ]
L:1/8
M:3/4
K:Bb
V:1 treble nm="Soprano" snm="S."
V:2 treble nm="Alto" snm="A."
V:3 treble-8 transpose=-12 nm="Tenor" snm="T."
V:4 bass nm="Bass" snm="B."
V:1
 B2 | F4 A2 | B4 d2 | c4 e2 | d4 d2 | e4 d2 | c4 B2 | (B2 A2) z2 | B2 (Bc) d2 | F4 F2 | (B3 c) d2 | %11
w: Con-|tent, ob-|scure, I|pass my|days, To|all I|meet un-|known; _|And wait _ till|thou thy|child _ shalt|
w: Let|o- thers|boast their|an- cient|line, In|long suc-|ces- sion|great; _|In the _ proud|list let|he- * roes|
w: Pro-|nounce me,|gra- cious|God, thy|son, Own|me an|heir di-|vine; _|I’ll pi- * ty|prin- ces|on _ the|
 F4 A2 | (B3 c) (de) | f4 e2 | (e2 d2) d2 | (d2 c2) B2 | B4 A2 | B4 ||[M:2/4] B2 | AG FA | B2 c2 | %21
w: raise, And|seat _ me _|near thy|throne, _ and|seat _ me|near thy|throne:|No|name, no ho- nours|here I|
w: shine, And|mon- * archs _|swell the|state, _ and|mon- * archs|swell the|state;|Des-|cen- ded from the|King of|
w: throne, When|I _ can _|call thee|mine, _ when|I _ can|call thee|mine:|Scep-|tres and crowns un-|en- vied|
 d2 z d | ff ee | dd cc | f4- | fe de | d2 c2 | B4 |] %28
w: crave, Well|pleas’d with those be-|yond the grave, well|pleas’d|_ with those be-|yond the|grave.|
w: Kings Each|saint a no- bler|ti- tle sings, each|saint|_ a no- bler|ti- tle|sings.|
w: rise, And|lose their lus- tre|in mine eyes, and|lose|_ their lus- tre|in mine|eyes.|
V:2
 D2 | F4 F2 | F4 F2 | F4 F2 | F4 F2 | E4 F2 | G4 G2 | F4 z2 | F2 F2 F2 | F4 D2 | F4 F2 | F4 F2 | %12
w: Con-|tent, ob-|scure, I|pass my|days, To|all I|meet un-|known;|And wait till|thou thy|child shalt|raise, And|
w: Let|o- thers|boast their|an- cient|line, In|long suc-|ces- sion|great;|In the proud|list let|he- roes|shine, And|
w: Pro-|nounce me,|gra- cious|God, thy|son, Own|me an|heir di-|vine;|I’ll pi- ty|prin- ces|on the|throne, When|
 F4 F2 | C4 F2 | F4 F2 | (F2 E2) D2 | G4 F2 | F4 ||[M:2/4] F2 | FC DE | F2 F2 | F2 z F | FF FF | %23
w: seat me|near thy|throne, and|seat _ me|near thy|throne:|No|name, no ho- nours|here I|crave, Well|pleas’d with those be-|
w: mon- archs|swell the|state, and|mon- * archs|swell the|state;|Des-|cen- ded from the|King of|Kings Each|saint a no- bler|
w: I can|call thee|mine, when|I _ can|call thee|mine:|Scep-|tres and crowns un-|en- vied|rise, And|lose their lus- tre|
 FF F2 | z2 z E | DE FG | F3 E | D4 |] %28
w: yond the grave,|well|pleas’d with those be-|yond the|grave.|
w: ti- tle sings,|each|saint a no- bler|ti- tle|sings.|
w: in mine eyes,|and|lose their lus- tre|in mine|eyes.|
V:3
 F2 | B4 e2 | d4 B2 | c4 A2 | B4 B2 | B4 B2 | e4 d2 | (d2 c2) z2 | d2 (dc) B2 | B4 B2 | (d3 c) B2 | %11
w: Con-|tent, ob-|scure, I|pass my|days, To|all I|meet un-|known; _|And wait _ till|thou thy|child _ shalt|
w: Let|o- thers|boast their|an- cient|line, In|long suc-|ces- sion|great; _|In the _ proud|list let|he- * roes|
w: Pro-|nounce me,|gra- cious|God, thy|son, Own|me an|heir di-|vine; _|I’ll pi- * ty|prin- ces|on _ the|
 B4 c2 | (d3 c) B2 | (c2 A2) c2 | (c2 B2) B2 | (B2 A2) B2 | e4 c2 | d4 ||[M:2/4] d2 | cA Bc | %20
w: raise, And|seat _ me|near _ thy|throne, _ and|seat _ me|near thy|throne:|No|name, no ho- nours|
w: shine, And|mon- * archs|swell _ the|state, _ and|mon- * archs|swell the|state;|Des-|cen- ded from the|
w: throne, When|I _ can|call _ thee|mine, _ when|I _ can|call thee|mine:|Scep-|tres and crowns un-|
 d2 A2 | B2 z B | Bd Ac | BB A2 | z A Bc | (dc B)B | B2 A2 | B4 |] %28
w: here I|crave, Well|pleas’d with those be-|yond the grave,|well pleas’d with|those _ _ be-|yond the|grave.|
w: King of|Kings Each|saint a no- bler|ti- tle sings,|each saint a|no- * * bler|ti- tle|sings.|
w: en- vied|rise, And|lose their lus- tre|in mine eyes,|and lose their|lus- * * tre|in mine|eyes.|
V:4
 B,,2 |"^6" D,4"^43" C,2 | B,,4 B,2 |"^6" A,4"^7" F,2 | B,4"^42" _A,2 |"^6" G,4"^64" F,2 | %6
w: Con-|tent, ob-|scure, I|pass my|days, To|all I|
w: Let|o- thers|boast their|an- cient|line, In|long suc-|
w: Pro-|nounce me,|gra- cious|God, thy|son, Own|me an|
"^6" E,4"^7" =E,2 |"^64""^53" F,4 z2 | B,,2 B,,2 B,,2 |"^6" D,4 B,,2 | B,,4 B,,2 |"^6" D,4 F,2 | %12
w: meet un-|known;|And wait till|thou thy|child shalt|raise, And|
w: ces- sion|great;|In the proud|list let|he- roes|shine, And|
w: heir di-|vine;|I’ll pi- ty|prin- ces|on the|throne, When|
 B,4 B,2 |"^6" (A,2 F,2)"^65" A,2 |"^94""^83" B,4 B,2 |"^64""^73" F,4 G,2 | (E,2"^7" C,2) F,2 | %17
w: seat me|near _ thy|throne, and|seat me|near _ thy|
w: mon- archs|swell _ the|state, and|mon- archs|swell _ the|
w: I can|call _ thee|mine, when|I can|call _ thee|
 B,,4 ||[M:2/4] B,,2 | F,"^43"E,"^6" D,"^6"C, | B,,2 F,2 | B,2 z B, |"^6" DB,"^43" C"^--"A, | %23
w: throne:|No|name, no ho- nours|here I|crave, Well|pleas’d with those be-|
w: state;|Des-|cen- ded from the|King of|Kings Each|saint a no- bler|
w: mine:|Scep-|tres and crowns un-|en- vied|rise, And|lose their lus- tre|
"^When he, in robes divinely bright,Shall once again appear,Thou, too, my soul, shalt shine in light,And his full image bear:Enough! I wait th’appointed day;Blest Saviour, haste, and come away." B,B,, F,2 | %24
w: yond the grave,|
w: ti- tle sings,|
w: in mine eyes,|
 z F,"^7" G,"^Notes:This setting appears in no. 28 of Thomas Clark’s The Congregational Harmonist,whichwas advertised on p128 of No. 48, Vol. 4, of The Musical World, on10 February 1837. This setting is attributed ‘T. Clark’ and is marked with a crossedcircle, a symbol used in The Congregational Harmonist to indicate ‘originals’(i.e. tunes not previously published). The order of parts in the source is Alto -Tenor - Air - Bass, with the Alto and Tenor parts given in the treble clef an octaveabove sounding pitch. Only the first verse of the text is given in the source:subsequent verses have here been added editorially.""^65"A, | %25
w: well pleas’d with|
w: each saint a|
w: and lose their|
 B,3 E, |"^64" F,2"^53""^7" F,2 | B,,4 |] %28
w: those be-|yond the|grave.|
w: no- bler|ti- tle|sings.|
w: lus- tre|in mine|eyes.|

